X:267
T:Gaelforce Wind 
C:Joe Buchanan's Scottish Tome - Page 312.0
I:312 0
C:R. Mathieson
R:Jig
Z:Carl Allison
L:1/8
M:6/8
K:D
f | "D"afd Gdf|"G"gfg "Em"BBd|"A7"cea gec|"G"dcd "D7"f2d|
"D"afd "Bm"Adf|"Em"gfg "E7"BBd|"A7"caa gec| "D"Add "G/D"d3 :|
A|"D"daa "Bm"afd|"A7"cea G2 c|"G"Bdg gdB| "D"AaB "A7"aca|
"D"daa "Bm"afd|"A7"cea "Em"A2 d|"A7"caa gec|"D"Add "G/D"d3 :|
e|"D"fef "D7"afd|"G"GBg "Em"B2 B|"Em"ece gBc|"D"daf "A7"g2 e|
"D"afd "D7"ABA| "G"gdB "Em"G2 d|"A7"caa gec|"D"Add "G/D"d2:|
A| "D"daa "Bm"afd|"A"cad aea|"G"Bdg gdB|"D"Aac "A7"aca|
"D"daa "Bm"afd|"A7"cea "Em"A2 d|"A7"caa gec|"D"Add "G/D"d2e||
"D"faa "Bm"afd|"A"caa "D"fad|"A"cad aea|"D"faa afd|
"D"faa "Bm"afd|"A7"cea "Em"A2 d|"A7"caa gec| "D"Add "G/D"d2|]

